src/section/s3/hand-bg.svg

<svg width="375" height="290" viewBox="0 0 375 290" fill="none" xmlns="http://www.w3.org/2000/svg">
<rect x="375" y="290" width="375" height="290" transform="rotate(-180 375 290)" fill="url(#paint0_linear_3_265)"/>
<path d="M138.503 212.289V221.428C138.503 221.701 138.412 221.792 138.113 221.805C137.801 221.805 136.709 221.818 135.708 221.766C135.903 222.117 136.15 222.715 136.228 223.079C137.541 223.079 138.464 223.066 139.036 222.858C139.595 222.65 139.79 222.26 139.79 221.454V212.289H138.503ZM130.95 214.889V220.843H132.146V214.889H130.95ZM131.457 214.889V216.059H135.162V218.646H131.457V219.829H136.371V214.889H131.457ZM129.676 211.925V213.173H141.35V211.925H129.676ZM142.819 213.316V214.499H154.155V213.316H142.819ZM146.459 216.774V217.957H153.856V216.774H146.459ZM145.094 221.571V222.767H154.389V221.571H145.094ZM149.228 217.333V222.234H150.476V217.333H149.228ZM146.693 211.028C146.147 214.759 145.016 218.997 142.312 221.389C142.559 221.636 142.936 222.091 143.118 222.364C146.069 219.686 147.278 215.292 147.98 211.197L146.693 211.028ZM155.793 213.368V214.564H167.233V213.368H155.793ZM159.147 221.194V222.39H165.478V221.194H159.147ZM158.419 216.904V223.118H159.641V218.1H165.023V223.053H166.31V216.904H158.419ZM160.187 211.028C159.524 214.265 158.133 217.697 155.351 219.595C155.598 219.842 155.988 220.284 156.17 220.57C159.147 218.451 160.629 214.837 161.474 211.275L160.187 211.028ZM177.945 216.748V221.935C177.945 222.104 177.893 222.156 177.711 222.156C177.542 222.156 176.931 222.156 176.346 222.13C176.489 222.416 176.632 222.832 176.684 223.118C177.594 223.118 178.192 223.105 178.595 222.949C178.985 222.78 179.115 222.507 179.115 221.948V216.748H177.945ZM171.757 214.993V217.307H172.888V215.968H179.206V217.307H180.389V214.993H171.757ZM173.07 211.496V215.487H174.175V212.458H177.88V215.487H179.037V211.496H173.07ZM169.183 212.029C169.937 212.51 170.977 213.238 171.471 213.693L172.264 212.77C171.744 212.328 170.691 211.652 169.95 211.21L169.183 212.029ZM168.494 215.669C169.222 216.098 170.223 216.709 170.704 217.112L171.445 216.163C170.938 215.773 169.924 215.188 169.209 214.811L168.494 215.669ZM168.949 222.104L170.054 222.832C170.665 221.649 171.354 220.128 171.874 218.802L170.899 218.074C170.301 219.517 169.508 221.129 168.949 222.104ZM173.551 216.748V217.71H178.361V216.748H173.551ZM172.979 216.748V218.607C172.979 219.764 172.875 221.363 171.978 222.533C172.251 222.663 172.758 223.001 172.966 223.196C173.954 221.909 174.136 219.985 174.136 218.62V216.748H172.979ZM174.006 220.427L174.37 221.376C175.514 221.129 176.996 220.778 178.4 220.44L178.283 219.556C176.71 219.894 175.098 220.232 174.006 220.427ZM174.396 218.971C175.358 219.101 176.593 219.426 177.243 219.712L177.633 218.88C176.97 218.594 175.735 218.308 174.786 218.217L174.396 218.971ZM175.475 213.212V215.539H176.476V213.992H178.491V213.212H175.475ZM181.832 219.491V220.388H187.825V219.491H181.832ZM181.507 213.251V214.174H188.007V213.251H181.507ZM184.224 212.185V221.649H185.342V212.185H184.224ZM181.468 221.597L181.624 222.65C183.301 222.481 185.654 222.234 187.864 221.974L187.851 221.025C185.524 221.259 183.067 221.467 181.468 221.597ZM182.872 217.216H186.746V218.009H182.872V217.216ZM182.872 215.669H186.746V216.449H182.872V215.669ZM181.871 214.863V218.815H187.773V214.863H181.871ZM187.24 211.132C185.849 211.444 183.535 211.678 181.598 211.769C181.715 212.016 181.832 212.406 181.884 212.666C183.834 212.614 186.226 212.406 187.812 212.068L187.24 211.132ZM187.942 214.031V215.162H192.557V214.031H187.942ZM192.063 214.031V214.304C191.946 219.465 191.816 221.324 191.504 221.727C191.387 221.896 191.257 221.935 191.049 221.935C190.802 221.935 190.256 221.922 189.658 221.87C189.853 222.208 189.983 222.715 190.009 223.053C190.62 223.079 191.231 223.079 191.621 223.027C192.024 222.962 192.31 222.845 192.557 222.455C192.986 221.896 193.103 220.037 193.246 214.603C193.246 214.46 193.246 214.031 193.246 214.031H192.063ZM189.372 211.223C189.359 216.254 189.463 220.167 186.59 222.273C186.876 222.481 187.292 222.897 187.474 223.183C190.529 220.843 190.542 216.553 190.555 211.223H189.372ZM196.236 218.529V219.348H200.292V218.529H196.236ZM196.236 220.037V220.843H200.37V220.037H196.236ZM196.054 221.61V222.468H200.513V221.61H196.054ZM197.835 217.593V221.831H198.797V217.593H197.835ZM195.638 214.33H196.626V215.37H195.638V214.33ZM194.923 213.654V216.033H197.38V213.654H194.923ZM198.706 214.33H199.707V215.344H198.706V214.33ZM197.991 213.641V216.033H200.448V213.641H197.991ZM196.405 217.021H196.314L195.495 218.022V223.092H196.405V217.879H200.552V217.021H196.405ZM196.067 216.02C195.69 217.047 195.04 218.061 194.364 218.763C194.52 218.958 194.806 219.413 194.897 219.595C195.638 218.776 196.405 217.502 196.873 216.293L196.067 216.02ZM197.601 216.384C197.822 216.748 198.043 217.229 198.108 217.554L198.914 217.177C198.849 216.865 198.602 216.397 198.368 216.059L197.601 216.384ZM194.442 211.782V212.679H196.678V211.782H194.442ZM196.223 211.041V213.42H197.198V211.041H196.223ZM198.212 211.041V213.42H199.2V211.041H198.212ZM198.641 211.769V212.679H200.812V211.769H198.641ZM202.086 214.642H204.855V215.695H202.086V214.642ZM202.086 216.683H204.855V217.762H202.086V216.683ZM202.086 212.588H204.855V213.641H202.086V212.588ZM201.046 211.496V218.854H205.947V211.496H201.046ZM203.802 218.425V221.649C203.802 222.65 203.984 222.975 204.816 222.975C204.985 222.975 205.323 222.975 205.492 222.975C206.194 222.975 206.454 222.52 206.519 220.674C206.259 220.583 205.817 220.427 205.635 220.245C205.609 221.805 205.57 221.961 205.362 221.961C205.284 221.961 205.037 221.961 204.959 221.961C204.79 221.961 204.777 221.922 204.777 221.636V218.425H203.802ZM202.099 218.451C201.982 220.115 201.657 221.454 200.11 222.208C200.357 222.403 200.682 222.832 200.825 223.118C202.58 222.156 203.009 220.518 203.152 218.451H202.099ZM210.341 216.8V223.131H211.511V217.749H216.763V223.131H217.998V216.8H210.341ZM207.728 215.058V216.046H219.259V215.058H207.728ZM208.664 213.316V214.265H218.518V213.316H208.664ZM211.134 218.49V219.309H217.27V218.49H211.134ZM211.134 220.076V220.882H217.27V220.076H211.134ZM211.004 221.675V222.637H217.283V221.675H211.004ZM217.686 211.106C215.554 211.509 211.68 211.678 208.495 211.691C208.612 211.951 208.716 212.354 208.742 212.627C211.966 212.64 215.905 212.458 218.427 211.99L217.686 211.106ZM212.265 212.081C211.602 214.928 210.12 217.775 207.364 219.322C207.611 219.556 207.975 220.011 208.144 220.284C211.082 218.555 212.668 215.526 213.539 212.341L212.265 212.081ZM222.275 218.659V219.738H230.686V218.659H222.275ZM222.873 215.786V216.878H230.114V215.786H222.873ZM220.988 221.662V222.767H232.077V221.662H220.988ZM225.811 216.254V222.273H227.098V216.254H225.811ZM222.938 211.405V212.549H227.033V211.405H222.938ZM225.785 211.405V212.094H226.136C227.449 213.914 229.62 215.773 231.804 216.8C231.986 216.462 232.389 215.955 232.636 215.695C230.504 214.85 228.32 213.147 227.15 211.405H225.785ZM225.993 211.405C224.81 213.069 222.405 214.967 220.39 215.864C220.676 216.124 220.988 216.553 221.157 216.852C223.185 215.799 225.603 213.81 226.89 212.029L225.993 211.405ZM236.315 213.719H242.607V214.434H236.315V213.719ZM236.315 212.263H242.607V212.965H236.315V212.263ZM235.132 211.47V215.24H243.842V211.47H235.132ZM233.715 215.929V216.917H245.22V215.929H233.715ZM236.614 218.386H242.386V219.4H236.614V218.386ZM235.431 217.515V220.271H243.621V217.515H235.431ZM238.889 219.803V221.948C238.889 222.091 238.837 222.13 238.655 222.143C238.473 222.156 237.823 222.156 237.199 222.13C237.342 222.403 237.498 222.793 237.563 223.092C238.473 223.092 239.11 223.092 239.552 222.949C239.994 222.806 240.124 222.559 240.124 221.987V219.803H238.889ZM240.995 221.246C242.152 221.701 243.647 222.429 244.388 222.936L245.233 222.156C244.427 221.636 242.919 220.96 241.788 220.57L240.995 221.246ZM236.653 220.518C235.899 221.116 234.625 221.675 233.481 222.039C233.754 222.234 234.183 222.663 234.391 222.91C235.509 222.455 236.9 221.714 237.771 220.973L236.653 220.518ZM238.538 215.448C238.811 215.812 239.084 216.332 239.175 216.657L240.319 216.254C240.189 215.916 239.903 215.448 239.617 215.097L238.538 215.448Z" fill="white"/>
<defs>
<linearGradient id="paint0_linear_3_265" x1="562.5" y1="290" x2="562.5" y2="580" gradientUnits="userSpaceOnUse">
<stop stop-color="#0361A0"/>
<stop offset="1" stop-color="#0361A0" stop-opacity="0"/>
</linearGradient>
</defs>
</svg>

<svg width="375" height="290" viewBox="0 0 375 290" fill="none" xmlns="http://www.w3.org/2000/svg">
<linearGradient id="SVGID_1" gradientUnits="userSpaceOnUse" x1="98.5" y1="270" x2="98.5" y2="-20" gradientTransform="matrix(-1 0 0 1 286 20)">
	<stop  offset="0" style="stop-color:#0361A0"/>
	<stop  offset="1" style="stop-color:#0361A000"/>
</linearGradient>
<rect fill="url(#SVGID_1)" width="375" height="290"/>
<path fill="#FFF" d="M136.2,223.1c2.6,0,3.6,0.4,3.6-1.7V212h-1.3v9.4c0,0.8-0.4,0.5-2.8,0.4L136.2,223.1z M132.1,219.8h4.2v-4.9
	h-5.4v6h1.2V219.8z M132.1,216.1h3v2.6h-3V216.1z M129.7,211.9v1.2h11.7v-1.2H129.7z M142.8,213.3v1.2h11.3v-1.2H142.8z
	 M146.5,216.8v1.2h7.4v-1.2H146.5z M145.1,221.6v1.2h9.3v-1.2H145.1z M149.2,217.3v4.9h1.2v-4.9H149.2z M146.7,211
	c-0.5,3.7-1.7,8-4.4,10.4c0.2,0.2,0.6,0.7,0.8,1c3-2.7,4.2-7.1,4.9-11.2L146.7,211z M155.8,213.4v1.2h11.4v-1.2H155.8z M159.1,221.2
	v1.2h6.3v-1.2H159.1z M158.4,216.9v6.2h1.2v-5h5.4v5h1.3v-6.1H158.4z M160.2,211c-0.7,3.2-2.1,6.7-4.8,8.6c0.2,0.2,0.6,0.7,0.8,1
	c3-2.1,4.5-5.7,5.3-9.3L160.2,211z M176.7,223.1c1.3-0.1,2.4,0.1,2.4-1.2v-5.2h-1.2v5.2c0,0.4-0.5,0.2-1.6,0.2L176.7,223.1z
	 M171.8,215v2.3h1.1V216h6.3v1.3h1.2V215H171.8z M173.1,211.5v4h1.1v-3h3.7v3h1.2v-4H173.1z M169.2,212c0.8,0.5,1.8,1.2,2.3,1.7
	l0.8-0.9c-0.5-0.4-1.6-1.1-2.3-1.6L169.2,212z M168.5,215.7c0.7,0.4,1.7,1,2.2,1.4l0.7-0.9c-0.5-0.4-1.5-1-2.2-1.4L168.5,215.7z
	 M168.9,222.1l1.1,0.7c0.6-1.2,1.3-2.7,1.8-4l-1-0.7C170.3,219.5,169.5,221.1,168.9,222.1z M173.6,216.7v1h4.8v-1H173.6z M173,223.2
	c1-1.3,1.2-3.2,1.2-4.6v-1.9H173v1.9c0,1.2-0.1,2.8-1,3.9L173,223.2z M174,220.4l0.4,0.9l4-0.9l-0.1-0.9L174,220.4z M174.4,219
	c1,0.1,2.2,0.5,2.8,0.7l0.4-0.8c-0.7-0.3-1.9-0.6-2.8-0.7L174.4,219z M175.5,213.2v2.3h1V214h2v-0.8H175.5z M181.8,219.5v0.9h6v-0.9
	H181.8z M181.5,213.3v0.9h6.5v-0.9H181.5z M184.2,212.2v9.5h1.1v-9.5H184.2z M187.9,222l0-0.9l-6.4,0.6l0.2,1.1L187.9,222z
	 M182.9,217.2h3.9v0.8h-3.9V217.2z M182.9,215.7h3.9v0.8h-3.9V215.7z M181.9,214.9v4h5.9v-4H181.9z M187.2,211.1
	c-1.4,0.3-3.7,0.5-5.6,0.6c0.1,0.2,0.2,0.6,0.3,0.9c1.9-0.1,4.3-0.3,5.9-0.6L187.2,211.1z M190,223.1c2.8,0.1,3.2,0.9,3.2-9h-5.3
	v1.1h4.1c0,7,0,7-2.4,6.7L190,223.1z M187.5,223.2c3.1-2.3,3.1-6.6,3.1-12h-1.2c0,5,0.1,8.9-2.8,11L187.5,223.2z M196.2,218.5v0.8
	h4.1v-0.8H196.2z M196.2,220v0.8h4.1V220H196.2z M196.1,221.6v0.9h4.5v-0.9H196.1z M197.8,217.6v4.2h1v-4.2H197.8z M195.6,214.3h1v1
	h-1V214.3z M194.9,213.7v2.4h2.5v-2.4H194.9z M198.7,214.3h1v1h-1V214.3z M198,213.6v2.4h2.5v-2.4H198z M195.5,218.8v4.3h0.9v-5.2
	h4.1V217h-4L195.5,218.8z M194.9,219.6c0.7-0.8,1.5-2.1,2-3.3l-0.8-0.3c-0.4,1-1,2-1.7,2.7L194.9,219.6z M198.4,216.1l-0.8,0.3
	l0.6,1.1l0.7-0.3L198.4,216.1z M194.4,211.8v0.9h2.2v-0.9H194.4z M196.2,211v2.4h1V211H196.2z M198.2,211v2.4h1V211H198.2z
	 M198.6,211.8v0.9h2.2v-0.9H198.6z M202.1,214.6h2.8v1.1h-2.8V214.6z M202.1,216.7h2.8v1.1h-2.8V216.7z M202.1,212.6h2.8v1.1h-2.8
	V212.6z M201,211.5v7.4h4.9v-7.4H201z M205.6,220.2c0,1.6-0.1,1.7-0.3,1.7c-0.1,0-0.3,0-0.4,0c-0.2,0-0.2,0-0.2-0.3v-3.2h-1v3.2
	c0,1,0.2,1.3,1,1.3c0.2,0,0.5,0,0.7,0c0.7,0,1-0.5,1-2.3L205.6,220.2z M202.1,218.5c-0.1,1.7-0.4,3-2,3.8c0.2,0.2,0.6,0.6,0.7,0.9
	c1.8-1,2.2-2.6,2.3-4.7H202.1z M210.3,216.8v6.3h1.2v-5.4h5.3v5.4h1.2v-6.3H210.3z M207.7,215.1v1h11.5v-1H207.7z M208.7,213.3v0.9
	h9.9v-0.9H208.7z M211.1,218.5v0.8h6.1v-0.8H211.1z M211.1,220.1v0.8h6.1v-0.8H211.1z M211,221.7v1h6.3v-1H211z M208.7,212.6
	c3.2,0,7.2-0.2,9.7-0.6l-0.7-0.9c-2.1,0.4-6,0.6-9.2,0.6L208.7,212.6z M208.1,220.3c2.9-1.7,4.5-4.8,5.4-7.9l-1.3-0.3
	c-0.7,2.8-2.1,5.7-4.9,7.2L208.1,220.3z M222.3,218.7v1.1h8.4v-1.1H222.3z M222.9,215.8v1.1h7.2v-1.1H222.9z M221,221.7v1.1h11.1
	v-1.1H221z M225.8,216.3v6h1.3v-6H225.8z M226.5,212.6c1.3,1.7,3.3,3.3,5.3,4.2l0.8-1.1c-2.1-0.8-4.3-2.5-5.5-4.3h-4.2v1.1h2.1
	c-1.3,1.3-3.1,2.6-4.6,3.3l0.8,1C223,215.9,225.1,214.2,226.5,212.6z M236.3,213.7h6.3v0.7h-6.3V213.7z M236.3,212.3h6.3v0.7h-6.3
	V212.3z M235.1,211.5v3.8h8.7v-3.8H235.1z M233.7,215.9v1h11.5v-1H233.7z M236.6,218.4h5.8v1h-5.8V218.4z M235.4,217.5v2.8h8.2v-2.8
	H235.4z M237.6,223.1c1.7,0.1,2.6,0,2.6-1.1v-2.2h-1.2v2.1c0,0.4-0.8,0.3-1.7,0.2L237.6,223.1z M241,221.2c1.2,0.5,2.7,1.2,3.4,1.7
	l0.8-0.8c-0.8-0.5-2.3-1.2-3.4-1.6L241,221.2z M234.4,222.9c1.1-0.5,2.5-1.2,3.4-1.9l-1.1-0.5c-0.8,0.6-2,1.2-3.2,1.5L234.4,222.9z
	 M239.6,215.1l-1.1,0.4l0.6,1.2l1.1-0.4L239.6,215.1z"/>
</svg>
